!!!OTL: Vor Zeiten und jetzt.
!!!ARE: Europa, Mitteleuropa, Deutschland
!!!SCT: A0210
!!!TXL: @@GMH
!!!YEM: Copyright 1995, estate of Helmut Schaffrath.
**kern	**text
!! Mixed meters:  4/2; 3/2
*M4/2	*
*met(c|)	*
*clefC4	*
*k[]	*
*a:aeo	*
=1	=1
!LO:TX:a:t=aeol.	!
2ryy	.
{2A	Vor
2A	ʒey-
2A	-ten
=2	=2
1G	was
2A	ich
[2c	lieb
=3	=3
*lig	*
2c]	.
4B	.
4A	.
2B	.
*Xlig	*
2B	vnd
=4	=4
1G}	werd,
{2c	heur
2.B	hat
=5	=5
.	.
4A	ſich
1A	als
!LO:SIC:o:2g#:v	!
2G	ver-
=6	=6
*M3/1	*
*met(3)	*
!LO:N:vis=0	!
0.A}	-kert,
=7	=7
{2r	.
2A	Das
2A	red
2A	ich
=8	=8
1G	ſi-
2A	-cher
[2c	auff
=9	=9
*lig	*
2c]	.
4B	.
4A	.
2B	.
*Xlig	*
2B	mein
=10	=10
1G}	trew,
{2c	es
2.B	iſt
=11	=11
.	.
4A	an
1A	jr
!LO:SIC:o:2g#:v	!
2G	ver-
=12	=12
*M3/1	*
*met(3)	*
!LO:N:vis=0	!
0.A}	-lorn.
=13	=13
*M3/2	*
*met(C3)	*
!LO:N:vis=1	!
{2c	Wenn
=14	=14
!LO:N:vis=0	!
1B	er
!LO:N:vis=1	!
2A	ein
=15	=15
!LO:N:vis=0	!
1G	an-
!LO:N:vis=1	!
2A	-dre
=16	=16
!LO:N:vis=1	!
2E	vil
!LO:N:vis=1	!
2E	lie-
!LO:N:vis=1	!
2D	-ber
=17	=17
!LO:N:vis=0	!
1E}	hat,
!LO:N:vis=1	!
{2c	niemandt
=18	=18
!LO:N:vis=0	!
1B	.
!LO:N:vis=1	!
2A	ʒwey
=19	=19
!LO:N:vis=0	!
1G	her-
!LO:N:vis=1	!
2A	-ren
=20	=20
*lig	*
!LO:N:vis=1	!
2E	die-
!LO:N:vis=1	!
2E	.
*Xlig	*
2D	-nen
=21	=21
*M4/2	*
*met(c|)	*
1E	kan,
2r}	.
{2A	der
=22	=22
2A	ein
2A	hats
2A	wort,
2B	der
=23	=23
*lig	*
1.c	an
4B	.
4A	.
=24	=24
2.B	.
4A	der
*Xlig	*
1G}	ſpot,
=25	=25
{1A	da-
2c	-mit
2B	wer-
=26	=26
!LO:N:vis=ß	!
4B	.
4A	-dens
1A	beyd
!LO:SIC:o:2g#:v	!
2G	ver-
=27	=27
0All}	-fürt.
==	==
!!!GTL: Liebeslieder
!!!AGN: Romanze, Ballade, Lied
!! 68 Lieder. Nuernberg bei Berg und Newber 1542 No. 42.
!!!ONB: ESAC (Essen Associative Code) Database: ALTDEU
!!!AMT: irregular
!!!AIN: vox
!!!EED: Helmut Schaffrath
!!!EEV: 1.0
!!!RDF**kern: l = terminal long
!!!AMD: Aeolian
!!!URL-scan: https://rosdok.uni-rostock.de/mcrviewer/recordIdentifier/rosdok_ppn738218359/iview2/phys_0367.iview2?x=-1816.6124862433817&y=544.8362231981009&scale=0.262872707487861&rotation=0&layout=singlePageLayout
!!!ENC: Anna Maria Matuszewska
!!!EEV: 2024/08/03
*-	*-
